X:187C
T:Saxon Dance (Manuscript version)
O:No 187 Page 91 Wiliam Clarke of Feltwell
M:2/4
L:1/16
N:In m.s. the key signature is G, bar B2 is written in quavers.
N:This is as in the manuscript. The B music feels as though it should be in the dominant key - see version 187G
K:C
Gc|e2ce g2fe|d2dd d2e2|g2f2d2d2|g2f2 c2Gc|e2ce g2fe|d2dc d2e2|g2f2d2e2|c6::d2|g2f2g2 ba|gfed cdef|gfag bac'b|a2a^g a2d2|g2=f2g2 ba|gfed cdef|gebg ec'ae|g2b2g2::g2|f2e2d2c2|d2dc d2f2|e2d2c2d2|e4c2g2|f2e2d2c2|d2d2d2f2|e2d2c2B2|c6:|


